icons/modus-outlined/location-point.svg

<svg xmlns="http://www.w3.org/2000/svg" width="24" height="24" fill="currentColor" viewBox="0 0 24 24">
  <path d="m21,11h-1.07c-.46-3.62-3.31-6.47-6.93-6.93v-1.07c0-.55-.45-1-1-1h0c-.55,0-1,.45-1,1v1.07c-3.62.46-6.47,3.31-6.93,6.93h-1.07c-.55,0-1,.45-1,1h0c0,.55.45,1,1,1h1.07c.46,3.62,3.31,6.47,6.93,6.93v1.07c0,.55.45,1,1,1h0c.55,0,1-.45,1-1v-1.07c3.62-.46,6.47-3.31,6.93-6.93h1.07c.55,0,1-.45,1-1h0c0-.55-.45-1-1-1Zm-9,7c-3.74,0-6.67-3.41-5.87-7.29.47-2.27,2.31-4.1,4.57-4.57,3.88-.81,7.29,2.13,7.29,5.87,0,3.31-2.69,6-6,6Zm3-6c0,1.66-1.34,3-3,3s-3-1.34-3-3,1.34-3,3-3,3,1.34,3,3Z"/>
</svg>

<svg xmlns="http://www.w3.org/2000/svg" width="24" height="24" fill="currentColor" viewBox="0 0 24 24">
  <path d="M21 11h-1.07A8 8 0 0 0 13 4.07V3c0-.55-.45-1-1-1s-1 .45-1 1v1.07A8 8 0 0 0 4.07 11H3c-.55 0-1 .45-1 1s.45 1 1 1h1.07A8 8 0 0 0 11 19.93V21c0 .55.45 1 1 1s1-.45 1-1v-1.07A8 8 0 0 0 19.93 13H21c.55 0 1-.45 1-1s-.45-1-1-1m-9 7c-3.74 0-6.67-3.41-5.87-7.29.47-2.27 2.31-4.1 4.57-4.57a6.005 6.005 0 1 1 1.29 11.87Zm3-6c0 1.66-1.34 3-3 3s-3-1.34-3-3 1.34-3 3-3 3 1.34 3 3"/>
</svg>
